resources/icons/16px/geotime.svg

<svg width="16" height="16" viewBox="0 0 16 16" fill="none" xmlns="http://www.w3.org/2000/svg">
<path fill-rule="evenodd" clip-rule="evenodd" d="M12.4438 6C10.5438 6 9 7.49375 9 9.33125C9 11.175 12.4438 16 12.4438 16C12.4438 16 15.8875 11.175 15.8875 9.33125C15.8813 7.49375 14.3438 6 12.4438 6ZM12.5 11C11.672 11 11 10.328 11 9.5C11 8.672 11.672 8 12.5 8C13.328 8 14 8.672 14 9.5C14 10.328 13.328 11 12.5 11Z" fill="#5F6B7C"/>
<path d="M0 6C0 2.685 2.685 0 6 0C8.98668 0 11.462 2.17949 11.923 5.03557C11.4058 5.0998 10.9159 5.24919 10.4689 5.46869C10.2054 3.23594 8.30276 1.5 6 1.5C3.5175 1.5 1.5 3.5175 1.5 6C1.5 8.4825 3.5175 10.5 6 10.5C6.74986 10.5 7.4573 10.3159 8.07952 9.99056C8.17326 10.4151 8.34495 10.9031 8.56804 11.4247C7.78964 11.7936 6.91903 12 6 12C2.685 12 0 9.315 0 6Z" fill="#5F6B7C"/>
<path d="M6.75 3.75004V5.6925L8.0325 6.9675C8.1675 7.1025 8.25 7.29 8.25 7.5C8.25 7.9125 7.9125 8.25 7.5 8.25C7.29 8.25 7.1025 8.1675 6.9675 8.0325L5.4675 6.5325C5.3325 6.3975 5.25 6.21 5.25 6V3.75004C5.25 3.33754 5.5875 3.00004 6 3.00004C6.4125 3.00004 6.75 3.33754 6.75 3.75004Z" fill="#5F6B7C"/>
</svg>

<svg xmlns="http://www.w3.org/2000/svg" viewBox="0 0 16 16">
  <path d="M12.444 6C10.544 6 9 7.494 9 9.331 9 11.175 12.444 16 12.444 16s3.443-4.825 3.443-6.669C15.881 7.494 14.345 6 12.445 6m.056 5a1.5 1.5 0 1 1 .001-3.001A1.5 1.5 0 0 1 12.5 11"/>
  <path d="M0 6c0-3.315 2.685-6 6-6a6 6 0 0 1 5.923 5.036 4.6 4.6 0 0 0-1.454.433A4.505 4.505 0 0 0 6 1.5 4.504 4.504 0 0 0 1.5 6a4.504 4.504 0 0 0 6.58 3.99c.093.425.265.913.488 1.435A6 6 0 0 1 6 12c-3.315 0-6-2.685-6-6"/>
  <path d="M6.75 3.75v1.943l1.283 1.275a.752.752 0 0 1-1.065 1.065l-1.5-1.5A.75.75 0 0 1 5.25 6V3.75c0-.412.338-.75.75-.75s.75.338.75.75"/>
</svg>
